X:1
T:Title
%%score { ( 1 3 ) | ( 2 4 ) }
L:1/8
Q:1/4=100
M:3/4
K:Eb
V:1 treble nm="Grand Piano"
V:3 treble 
V:2 bass 
V:4 bass 
V:1
 GG F2 E2 | AG A4 | [DA][DA] G2 F2 | B=A B4 | cc c2 [=EG]2 | [GB][FA] [FA]4 | %6
w: Ira~B.~Wilson * * *||||||
 [F=A][FA] [FB]2 [Fc]2 |[M:4/4] [Fd][Gd] [Ad]6 |[M:6/8] z BB z BB | [Cc]3 G3 | GFE DEG | B3 D3 | %12
w: ||||||
 A3 B3 | G3 e3 | [Fd]ed cd[Fc] | z3 .A3 | z BB z BB | z GG z EE | GFE DEG | B3 A3 | c3 =B3 | %21
w: |||||||||
[M:15/16] B3 z3/2 z3 |[M:3/4] FB A[EG] [DG][DF] | E6 |] %24
w: |||
V:2
 [E,B,E][E,B,E] [A,B,D]2 [G,B,]2 | [F,B,D][=E,B,D] [F,B,D]4 | [B,,B,][B,,B,] [B,D]2 [A,B,D]2 | %3
 [G,B,E][_G,CE] [=G,B,E]4 | [A,E][A,E] [G,C=E]2 [C,C]2 | [F,C][F,C] [F,C]4 | %6
 [E,C][E,C] [D,B,]2 [F,=A,]2 |[M:4/4] [B,,B,][B,,B,] [B,F]6 | %8
[M:6/8] z[K:treble] GG[K:bass] z[K:treble] GG | z EE z B,B, | C,[G,B,][G,B,] B,,[G,B,][G,B,E] | %11
 F,[A,B,]A, B,,[F,A,][F,A,] | z B,B, z B,B, | z B,B, z[K:treble] [EG][EG] | z[K:treble] GF EFE | %15
 B,,D,F, CB,A, | z[K:treble] GG[K:bass] z[K:treble] GG | z EE z B,B, | %18
 E,[G,B,][G,B,] G,,[G,B,][G,B,E] | z _DD z CC | z EE z EE |[M:15/16] z E/-E/E[C,C]3/2- [C,C]3 | %22
[M:3/4][K:treble] [A,C][A,CF][K:bass] [F,CF][B,,B,] [B,,B,][B,,A,] | [E,G,]3 [E,,E,]3 |] %24
V:3
 x6 | x6 | x6 | x6 | x6 | x6 | x6 |[M:4/4] x8 |[M:6/8] [Ee]3 [Dd]3 | z GG B,EE | x6 | z DD z B,B, | %12
 z FF z DD | z EE z cc | x6 | [DFB]3 [DB]-[D-GB-][DFB] | [Ee]3 [Dd]3 | [Cc]3 [G,G]3 | x6 | %19
 z GG z FF | z AA z _GG |[M:15/16] z G/-G/G[EGe]3/2- [EGe]3 |[M:3/4] x6 | B,3 [G,B,]3 |] %24
V:4
 x6 | x6 | x6 | x6 | x6 | x6 | x6 |[M:4/4] x8 | %8
[M:6/8] [E,,E,]3[K:treble][K:bass] [B,,,B,,]3[K:treble] | [E,,E,]3 [B,,,B,,]3 | x6 | x6 | %12
 [D,,D,]3 [B,,,B,,]3 | [E,,E,]3 [C,,C,]3[K:treble] | [F,,F,]3[K:treble] [F,=A,]3 | x6 | %16
 [E,,E,]3[K:treble][K:bass] [B,,,B,,]3[K:treble] | [E,,E,]3 [B,,,B,,]3 | x6 | [=E,,=E,]3 [F,,F,]3 | %20
 [A,,A,]3 [=A,,=A,]3 |[M:15/16] [B,,B,]3 z3/2 z3 |[M:3/4][K:treble] x2[K:bass] x4 | x6 |] %24

